X: 1831
T: Rita Baker's 3rd Jig
B: australian traditional tunes wiki
M:6/8
L:1/8
R: Jig
Q: 3/8=100
K:G
V:1 
D|:"G"G2DG2D|"C"EFED2c|"G"BAG GFG|"D7"ABcd2D|
"G"G2DG2D|"C"EFED2c|"G"BAG "D7"DEF|"G"G3GAB:|
|:"C"c2e edc|"G"B2d dcB|"D7"ABc cBA|"G"GABd2B|
"C"c2e edc|"G"B2d dcB|"D7"ABc cBA|"G"G3z3:|
% abcbook-tune_id 6342d53a205629771bec3548


% abcbook-boost 0
% abcbook-tablature 
% abcbook-transpose 
% abcbook-lastupdated 1665324386603
% abcbook-soundfonts 
% abcbook-repeats 1
% NFF Book 2009

